X:93
T:The Lark's Nest
B:Terry "Cuz" Teahan "Sliabh Luachra on Parade" 1980
Z:Patrick Cavanagh
M:2/4
L:1/8
R:Polka
K:D
B | AB AF | AB de | fa ef | dB Bd | 
AB AF AB de | fa ef | d2 d :| 
e | fa a2 | fb ba | fa ef | dB Bd | 
fa a2 | fb ba | fa ef | d2 d :|| 

